src/assets/logos/figma.svg

<svg width="50" height="77" viewBox="0 0 50 77" fill="none" xmlns="http://www.w3.org/2000/svg">
<path d="M12.5 76.9996C19.4001 76.9996 25.0001 71.2503 25.0001 64.1663V51.333H12.5C5.60002 51.333 0 57.0823 0 64.1663C0 71.2503 5.60002 76.9996 12.5 76.9996Z" fill="#0ACF83"/>
<path d="M0 38.4993C0 31.4153 5.60002 25.666 12.5 25.666H25.0001V51.3326H12.5C5.60002 51.3326 0 45.5833 0 38.4993Z" fill="#A259FF"/>
<path d="M0 12.8333C0 5.74932 5.60002 0 12.5 0H25.0001V25.6666H12.5C5.60002 25.6666 0 19.9173 0 12.8333Z" fill="#F24E1E"/>
<path d="M24.9998 0H37.4998C44.3999 0 49.9999 5.74932 49.9999 12.8333C49.9999 19.9173 44.3999 25.6666 37.4998 25.6666H24.9998V0Z" fill="#FF7262"/>
<path d="M49.9999 38.4993C49.9999 45.5833 44.3999 51.3326 37.4998 51.3326C30.5998 51.3326 24.9998 45.5833 24.9998 38.4993C24.9998 31.4153 30.5998 25.666 37.4998 25.666C44.3999 25.666 49.9999 31.4153 49.9999 38.4993Z" fill="#1ABCFE"/>
</svg>

<svg width="50" height="77" fill="none" xmlns="http://www.w3.org/2000/svg"><path d="M12.5 77C19.4 77 25 71.25 25 64.166V51.333H12.5c-6.9 0-12.5 5.75-12.5 12.833C0 71.25 5.6 77 12.5 77z" fill="#0ACF83"/><path d="M0 38.5c0-7.085 5.6-12.834 12.5-12.834H25v25.667H12.5c-6.9 0-12.5-5.75-12.5-12.834z" fill="#A259FF"/><path d="M0 12.833C0 5.75 5.6 0 12.5 0H25v25.667H12.5c-6.9 0-12.5-5.75-12.5-12.834z" fill="#F24E1E"/><path d="M25 0h12.5C44.4 0 50 5.75 50 12.833c0 7.084-5.6 12.834-12.5 12.834H25V0z" fill="#FF7262"/><path d="M50 38.5c0 7.083-5.6 12.833-12.5 12.833S25 45.583 25 38.499s5.6-12.833 12.5-12.833S50 31.416 50 38.499z" fill="#1ABCFE"/></svg>
